X:1
T:Title
%%score [ ( 1 2 ) 3 ( 4 5 ) ( 6 7 ) ]
L:1/8
Q:1/4=120
M:4/4
K:Bmin
V:1 treble nm="Soprano" snm="S"
V:2 treble 
V:3 treble nm="Alt" snm="А"
V:4 treble-8 nm="Tenor" snm="Т"
V:5 treble-8 
V:6 bass nm="Bass" snm="B"
V:7 bass 
V:1
"^Maestoso" z8 |!f! z2 e2 e2 e2 | f2- f z z4 | z2 f2 f2 f2 | !breath!f2 f2 e3 f | g6 f2 | %6
w: |Duh Tvoj bla-|gi _|Duh Tvoj bla-|gi,- Duh Tvoj bla-|gi na-|
w: ||||||
 e2 e2 d2 e2 |!p!!>(! f4!>)! !breath!d2 D2 | F6 F2 | F4 F2- F z | z8 |!p! G4 A2 B2 | (c6 B2) | %13
w: sta- vit mja na|zem- lju, na|zem- lju|pra- vu. _||Duh Tvoj bla-|gi, _|
w: |||||||
 A4 B2 c2 | (d6 c2 | B2) B2 e2 d2 | c8- | c2 A2 d2 c2 | B8- | B2 (cd) e2 d2 | c8- | c4 c2- c z | %22
w: Duh Tvoj- bla-|||||mja|_ na _ zem- lju|pra-|* vu.- _|
w: |gi _|_ na- sta- vit|mja,|_ na- sta- vit|||||
 z8 |!f! z2 e2 e2 e2 | f2- f z z4 | z2 f2 f2 f2 | !breath!f2 f2 e3 f | g6 f2 | e2 e2 d2 e2 | %29
w: |||Duh- Tvoj bla-|gi, Duh Tvoj bla-|gi na-|sta- vit- mja na|
w: |||||||
!p!!>(! f4 !breath!d2!>)! D2 | F6 F2 | F6 F2 |!<(! F4!<)! F4 |!>(! F8!>)! | F2- F z!<(! F2 F2!<)! | %35
w: zem- lju, na-|sta- vit-|mja na|zem- lju|pra-|vu. _ A- li-|
w: ||||||
!>(! E6 G2!>)! | !breath!F4!>(! F2 A2!>)! | G6 E2 |!mf! !breath!F4!<(! F2 B,2!<)! | %39
w: lu- i-|ja, a- li-|lu- i-|ja, a- li-|
w: ||||
 D6!>(! B,2!>)! |!>(! B,4- B,!>)! z z2 |] %41
w: lu- i-|ja. _|
w: ||
V:2
 x8 | z2 c2 c2 c2 | d2- d z z4 | z2 c2 c2 c2 | ^d2 d2 c3 d | e6 =d2 | c2 c2 B2 c2 | d4 A2 D2 | x8 | %9
w: |||||||||
w: |||||||||
 x8 | x8 | x8 | x8 | x8 | x8 | x8 | x8 | x8 | B8- | B8- | B2 B2 ^A2 ^G2 | ^A4 A2- A z | x8 | %23
w: ||||||||||||||
w: |||||||||mja|_|* na zem- lju|pra- vu. _||
 z2 c2 c2 c2 | d2- d z z4 | z2 c2 c2 c2 | ^d2 d2 c3 d | e6 =d2 | c2 c2 B2 c2 | d4 A2 D2 | x8 | x8 | %32
w: |||||||||
w: Duh Tvoj bla-|gi, *||||||||
 x8 | x8 | x8 | x8 | x8 | x8 | x8 | x8 | x8 |] %41
w: |||||||||
w: |||||||||
V:3
 z8 |!f! z2 A2 A2 A2 | A2- A z z4 | z2 ^A2 A2 A2 | !breath!B2 B2 B3 B | B6 =A2 | A2 A2 A2 A2 | %7
w: |||||||
!>(! A4!>)! F2 z2 |!p! z2 E2 D2 D2 | C4 C2- C z |!p! B,4 C2 D2 | (E6 D2) | C4 ^D2 =F2 | (F6 =E2) | %14
w: |na zem- lju-|pra- vu. _|Duh Tvoj bla-|gi, _|Duh- Tvoj bla-|gi, _|
 D4 E2 F2 | G8- | G2 E2 A2 G2 | F8- | F2 D2 G2 F2 | E3 D C2 (DE) | F8- | F4 F2- F z | z8 | %23
w: Duh Tvoj bla-|gi|_ na- sta- vit|mja,|_ na- sta- vit|mja na zem- lju _|pra-|* vu. _||
!f! z2 A2 A2 A2 | A2- A z z4 | z2 ^A2 A2 A2 | !breath!B2 B2 B3 B | B6 =A2 | A2 A2 A2 A2 | %29
w: ||||||
!>(! A4 F2!>)! z2 |!p! z2 E2 D2 D2 | C6 C2 |!<(! E4!<)! E4 |!>(! D8!>)! | D2- D z!<(! D2 D2!<)! | %35
w: |na- sta- vit-|mja na|zem- lju|pra-|vu. _ _ _|
!>(! D6 C2!>)! | !breath!D4!>(! D2 D2!>)! | D6 C2 |!mf! !breath!D4!<(! D2 B,2!<)! | %39
w: _ _||||
 D6!>(! B,2!>)! |!>(! B,4- B,!>)! z z2 |] %41
w: ||
V:4
!f! d4 d3 d | e8 | f4 f3 f | f8 | f4 e3 f | g6 f2 | e2 e2 d2 e2 |!>(! f4!>)! d2 z2 | %8
w: Duh Tvoj bla-|gi,|Duh Tvoj- bla-|gi,|Duh Tvoj bla-|gi na-|sta- vit- mja na|zem- lju|
!p! z2 ^A2 ^G2 G2 | ^A4 A2- A z | z8 | z8 | z8 | z8 | z8 | z8 | z8 | z8 | z8 | z8 | z8 | z8 | %22
w: na zem- lju|pra- vu. _|||||||||||||
!f! d4 d3 d | e8 | f4 f3 f | f8 | f4 e3 f | g6 f2 | e2 e2 d2 e2 |!>(! f4 d2!>)! z2 | %30
w: Duh Tvoj bla-|gi,|Duh Tvoj bla-|gi,|Duh Tvoj bla-|gi na-|sta- vit mja na|zem- lju,|
!p! z2 ^A2 ^G2 G2 | ^A6 A2 |!<(! B4!<)! c4 |!>(! B8!>)! | B2- B z!<(! B2 B2!<)! |!>(! B6 B2!>)! | %36
w: na- sta- vit-|mja na|zem- lju|pra-|vu.- _ A- li-|lu- i-|
 !breath!B4!>(! B2 B2!>)! | B6 B2 |!mf! !breath!B4!<(! B2 B2!<)! | ^G4!>(! =G4!>)! | %40
w: ja, a- li-|lu- i-|ja, a- li-|lu- i-|
!>(! F4-!>)! F z z2 |] %41
w: ja. _|
V:5
 B4 B3 B | c8 | d4 d3 d | c8 | ^d4 c3 d | e6 =d2 | c2 c2 B2 c2 | d4 A2 z2 | z2 F2 F2 F2 | %9
 F4 F2- F z | x8 | x8 | x8 | x8 | x8 | x8 | x8 | x8 | x8 | x8 | x8 | x8 | B4 B3 B | c8 | d4 d3 d | %25
 c8 | ^d4 c3 d | e6 =d2 | c2 c2 B2 c2 | d4 A2 z2 | z2 F2 F2 F2 | F6 F2 | ^G4 ^A4 | B8 | %34
 B2- B z B2 B2 | G6 G2 | F4 F2 A2 | G6 G2 | F4 F2 F2 | x8 | x8 |] %41
V:6
!f! F,4 F,3 F, | A,8 | A,4 A,3 A, | ^A,8 | B,4 B,3 B, | B,6 =A,2 | A,2 A,2 A,2 A,2 | %7
!>(! A,4!>)! D,2 z2 |!p! z2 C,2 B,,2 B,,2 | C,4 C,2- C, z | z8 | z8 | z8 | z8 | z8 | z8 | z8 | z8 | %18
 z8 | z8 | z8 | z8 |!f! F,4 F,3 F, | A,8 | A,4 A,3 A, | ^A,8 | B,4 B,3 B, | B,6 =A,2 | %28
 A,2 A,2 A,2 A,2 |!>(! A,4 D,2!>)! z2 |!p! z2 C,2 B,,2 B,,2 | C,6 C,2 |!<(! C,4!<)! F,4 | %33
!>(! F,8!>)! | F,2- F, z!<(! B,,2 B,,2!<)! |!>(! B,,6 B,,2!>)! | !breath!B,,4!>(! B,,2 B,,2!>)! | %37
 B,,6 B,,2 |!mf! !breath!B,,4!<(! B,,2 B,,2!<)! | B,,4!>(! B,,4!>)! |!>(! B,,4-!>)! B,, z z2 |] %41
V:7
 B,,4 B,,3 B,, | A,,8 | D,4 D,3 D, | F,8 | B,4 B,3 B, | E,6 F,2 | A,2 A,2 A,2 A,2 | D,4 D,2 z2 | %8
 z2 C,,2 B,,,2 B,,,2 | F,,4 F,,2- F,, z | x8 | x8 | x8 | x8 | x8 | x8 | x8 | x8 | x8 | x8 | x8 | %21
 x8 | B,,4 B,,3 B,, | A,,8 | D,4 D,3 D, | F,8 | B,4 B,3 B, | E,6 F,2 | A,2 A,2 A,2 A,2 | %29
 D,4 D,2 z2 | z2 C,,2 B,,,2 B,,,2 | F,,6 F,,2 | F,,4 F,,4 | B,,8 | B,,2- B,, z B,,2 B,,2 | %35
 E,,6 E,,2 | B,,,4 B,,,2 B,,,2 | E,,6 E,,2 | B,,,4 B,,,2 B,,,2 | E,,4 E,,4 | B,,,4- B,,, z z2 |] %41

